X: 28679
T: Mutatu
R: reel
M: 4/4
K: Aminor
A2AG ABcA|B2BA Bcde|-edec dGGG|A2GA AGEG|
A2AG ABcA|B2BA Bcde|-e2dc d2cB|-Bcdc Bd (3BAG||
A2AG ABcA|B2BA Bcde|-edec dGGG|A2GA AGEG|
A2AG ABcA|B2BA Bcde|-e2dc d2cB|-Bcdc d2eg||
agea -aged|e2ed cAA2|cBc d2 cde|-ede g2 ege|
agea aged|efed cAA2|cBcd dcde|edeg gege||
agea -aged|e (3eee d cAA2|cBcd dcde|ede g2 ege|
agea -agab|c'bg a3 gf|eee d2 c B2|cdc B2A G2||

